X:1
T:Benedicite gentes
T:Peter Griesbacher
T:Benedicite gentes
T:Copyright © 
T:Copyright © 
T:Copyright © 
T:Copyright © 
T:Copyright © 
T:Copyright © 
C:Peter Griesbacher
Z:Copyright ©
%%score [ 1 2 3 4 ]
L:1/8
Q:1/4=120
M:3/4
K:Bb
V:1 treble nm="SOPRANO" snm="S."
V:2 treble nm="ALTO" snm="A."
V:3 treble-8 transpose=-12 nm="TENOR" snm="T."
V:4 bass nm="BASS" snm="B."
V:1
 z4 | z6 | z6 | z6 |!p! z6 |!<(! F2 G2 A2 | B4!<)! F2 | B4 c2 | d4 c2 |!>(!!>(! G6!>)!!>)! | %10
w: |||||Et ob- au-|di- te|vo- cem|lau- dis|e-|
 A4!mf! F2 | F3 G A2 | B3 A A2 | A2 G2 !>!c2 | !>!d2 !>!c2 z2 | z6 | %16
w: jus: qui|po- su- it|a- ni- mam|me- am ad|vi- tam,||
!pp! z2"^sostenuto molto" F2 F2 | _G4 F2 | B4 _A2 | _G4 F2 | E4 _D2 |!<(! F6-!<)! | F6 | %23
w: et non|de- dit|co- mo-|ve- ri|pe- des|me-||
!>(! F6-!>)! |[M:4/4]"^Maestoso"[Q:1/4=70] F4 z2 z2 | z4!mf!!<(! F2!<)! F2 | B4 B4 | B3 F F4 | %28
w: os.|_|Be- ne-|di- ctus|Do- mi- nus,|
 z4!f! F2 B2 | d4 d4 | d3 B B4 |!ff! z4!<(! B2 d2!<)! | f4 f4 |!>(! f3 d!>)! d4 | z8 | z8 | z8 | %37
w: be- ne-|di- ctus|Do- mi- nus,|be- ne-|di- ctus|Do- mi- nus,||||
!mf! z2 f2 e2 d2 |!<(! c6 d2!<)! | e3 d c2 B2 | (A4 B2) A2 |!>(! G8!>)! | ^F8 | %43
w: qui non a-|mo- vit|de- pre- ca- ti-|o- * nem|me-|am,|
!<(! G2 ^F2 G2!<)! A2 | B3 A A4 | G4!>(! F2 D2!>)! | F8 | z8 | z8 | z8 |!<(! B2 A2 B2!<)! c2 | %51
w: et mi- se- ri-|cor- di- am|su- am a|me,||||et mi- se- ri-|
 d3 c c4 | c4 B2!f! d2 |!>(! e8-!>)! | e4!p! d2 c2 | (B4 c4) | d4 z4 | z8 | z4!f! c2 d2 | %59
w: cor- di- am|su- am a|me,|_ al- le-|lu- *|ia,||al- le-|
 (e4 d2 c2 | B4 A4) |!>(! B8-!>)! | B4 z2 |] %63
w: lu- * *||ia.||
V:2
 z4 | z6 | z6 | z6 |!p! z6 |!<(!!<(! F2 F2 F2 | F4!<)!!<)! D2 | F4 F2 | F2 D2 (F2- | %9
w: |||||Et ob- au-|di- te|vo- cem|lau- dis e-|
 F2!>(! =ED E2) | F4!>)!!mf! F2 | F3 F F2 | (F2 =E)F F2 | =E2 E2 G2 | A2 A2 z2 | z6 | %16
w: |jus: qui|po- su- it|a- * ni- mam|me- am ad|vi- tam,||
!pp! z2"^sostenuto molto" F2 F2 | _G4 F2 | _D4 D2 | _D4 D2 | B,2 B,2 (_D2- |!<(! D2 C2 _DE!<)! | %22
w: et non|de- dit|co- mo-|ve- ri|pe- des me-||
 F2 E2 _D2) | C6- |[M:4/4] C4 z4 | z4!mf!!<(! D2!<)! D2 | F4 F4 | F3 D D4 | z4!f! D2 F2 | B4 B4 | %30
w: |os:|_|Be- ne-|di- ctus|Do- mi- nus,|be- ne-|di- ctus|
 B3 F F4 |!ff! z4!<(! D2 F2!<)! | B4 B4 |!>(! B3 F!>)! F4 | z8 | z8 |!mf! z2 B2 A2 G2 | F8- | %38
w: Do- mi- nus,|be- ne-|di- ctus|Do- mi- nus,|||qui non a-|mo-|
!<(! F4 E2 F2!<)! | G3 G G2 G2 | F4 F2 (F2- | F2!>(! ED C2 ^C2)!>)! | D8 |!<(! D2 D2 D2!<)! =F2 | %44
w: * * vit|de- pre- ca- ti-|o- nem me-||am,|et mi- se- ri-|
 F3 F F4 | D4!>(! D2 B,2!>)! | C8 | z8 | z8 | G2 ^F2 G2 A2 |!<(! (B4!<)! G4 | F3) F F2 (E2- | %52
w: cor- di- am|su- am a|me,|||et mi- se- ri-|cor- *|* di- am su-|
 E2 D2) D2!f! _A2 |!>(! G8-!>)! | G4!p! G2 G2 | (F4 G4) | ^F4 z4 |!mf! z4 G2 A2 | (B3 A G4) | %59
w: * * am a|me,|_ al- le-|lu- *|ia,|al- le-|lu- * *|
 G2!f! G4 G2 | F8 |!>(! F8-!>)! | F4 z2 |] %63
w: ia al- le-|lu-|ia.||
V:3
 z4 | z6 | z6 | z6 |!p! z6 |!<(! A2 B2 c2 | d4!<)! B2 | d4 c2 | B4 A2 |!>(! c6!>)! | c4!mf! c2 | %11
w: |||||Et ob- au-|di- te|vo- cem|lau- dis|e-|jus: qui|
 d3 c c2 | B3 c c2 | c2 c2 =e2 | f2 F2 z2 | z6 |!pp! z2"^sostenuto molto" F2 F2 | _G4 F2 | F4 F2 | %19
w: po- su- it|a- ni- mam|me- am ad|vi- tam,||et non|de- dit|co- mo-|
 B4 _A2 | _G2 E2 (B2- |!<(! B2 A2 Bc!<)! | _d2 c2 B2) |!>(! A6-!>)! |[M:4/4] A4 z4 | %25
w: ve- ri|pe- des me-|||os:|_|
 z4!mf!!<(! B2!<)! B2 | d4 d4 | d3 B B4 | z4!f! B2 d2 | f4 f4 | f3 B B4 |!ff! z4!<(! f2 B2!<)! | %32
w: Be- ne-|di- ctus|Do- mi- nus,|be- ne-|di- ctus|Do- mi- nus,|be- ne-|
 d4 d4 |!>(! d3 B!>)! B4 | z8 |!mf! z2 e2 d2 c2 | B8- | B4 A2 B2- |!<(! B2 A2 G2 A2!<)! | %39
w: di- ctus|Do- mi- nus,||qui non a-|mo-|* vit de-|* pre- ca- ti-|
 (B4 e2) d2 | (c4 d2 c2 | B4!>(! A2 G2!>)! | A4) d2 c2 |!<(! (B2 A2 B2)!<)! c2 | d3 c c4 | %45
w: o- * nem|me- * *||am, et mi-|se- * * ri-|cor- di- am|
 B4!>(! A2 G2!>)! | A8 | G2 ^F2 G2 A2 | (B6 c2 | d3) d d2 c2 |!<(! (B8!<)! | B4 A2 G2 | %52
w: su- am a|me,|et mi- se- ri-|cor- *|* di- am _|su-||
 A4) B2!f! B2 |!>(! B8-!>)! | B4!p! =B2 c2 | (d2 cB A2 G2) | A4!mf! B2 c2 | (d6 c2) | %58
w: * am a|me,|_ al- le-|lu- * * * *|ia, al- le-|lu- *|
!<(! B4 c2!<)!!f! =B2 | (c2 g2 f2 e2 | d4 c4) |!>(! d8-!>)! | d4 z2 |] %63
w: ia al- le-|lu- * * *||ia.||
V:4
!mf! F,2 F,2 | B,3 A, G,2 | G,4 F,2 | G,3 E, E,2 | (E,2 D,2) E,2 | (F,6 | B,,6) | B,,6- | B,,4 z2 | %9
w: Be- ne-|di- ci- te|gen- tes|Do- mi- num|De- * um|no-||strum,|_|
 z2!mf! z2 C,2 | F,3 G, A,2 | B,3 A, A,2 | G,2 C,2 F,2 | (C4 B,2) | %14
w: qui|po- su- it|a- ni- mam|me- am ad|vi- *|
 A,2!p!"^sostenuto molto" F,2 F,2 | _G,6 | F,4 F,2 | _G,4 F,2 | B,,4 B,,2 | B,4 _A,2 | _G,4 G,2 | %21
w: tam, et non|de-|dit, non|de- dit|co- mo-|ve- ri|pe- des|
!<(! F,6-!<)! | F,6 |!>(! [F,,F,]6-!>)! |[M:4/4]!mf! [F,,F,]4!<(! F,2 F,2!<)! | B,4 B,4 | %26
w: me-||os:|_ Be- ne-|di- ctus|
 B,3 B,, B,,4- | B,,4!f! D,2 F,2 | B,4 B,4 | B,3 B,, B,,4- | B,,4!ff!!<(! D,2 F,2 | %31
w: Do- mi- nus,|_ be- ne-|di- ctus|Do- mi- nus,|_ be- ne-|
 B,4!<)! B,2 (B,2- | B,2 F,2 G,2 A,2 |!>(! B,3) B,,!>)! B,,4 |!mf! z2 B,2 A,2 G,2 | %35
w: di- ctus Do-||* mi- nus,|qui non a-|
 (F,2 G,2 F,2 E,2) | D,2 G,2 F,2 E,2 | (D,4 C,2) B,,2 |!<(! F,6 F,2!<)! | E,3 E, (E,4- | %40
w: mo- * * *|vit, qui non a-|mo- * vit|de- pre-|ca- ti- o-|
 E,2 F,E, D,2) D,2 |!>(! E,8!>)! | D,8 |!<(! G,2 D,2 G,2!<)! F,2 | B,3 F, F,4 | %45
w: * * * * nem|me-|am,|et mi- se- ri-|cor- di- am|
 G,4!>(! D,2 G,2!>)! | F,8 | z8 | G,2 ^F,2 G,2 A,2 | (B,6 A,2 |!<(! G,3) E,!<)! E,4 | (F,8- | %52
w: su- am a|me,||et mi- se- ri-|cor- *|* di- am|su-|
 F,2 ^F,2) G,2!f! =F,2 |!>(! E,8-!>)! | E,4!p! E,2 E,2 | F,4 E,4 |!mf! D,4 G,2 A,2 | B,6 A,2 | %58
w: * * am a|me,|_ al- le-|lu- *|ia, al- le-|lu- *|
!<(! G,3 F, E,2!<)!!f! D,2 | C,4 D,2 E,2 | F,8 |!>(! B,,8-!>)! | B,,4 z2 |] %63
w: |ia, sl- le-|lu-|ia.||

